!!!COM: Keita, Fodeba
!!!CDT: 1925-1970
!!!OTL: National Anthem, Grenada
!!!ENC: Davis, Matthew J.
!!Vocal Line Only
**kern
*clefG2
*k[f#]
*G:
*M2/4
=1-
4g
8f
8g
=2
4a
4a
=3
12gg
12ff#
12ee
6dd
12cc
=4
2b
=5
4g
8f#
8g
=6
4a
4a
=7
6cc
6b
6a
6f#
6g
6a
=8
4b
16b
16cc
16b
16a
=9
4g
8g
8d
=10
4g
8f#
8g
=11
8a
8e
4a
=12
6g
6f#
6ee
3dd
6cc
=13
2b
=14
4dd
4ee
=15
4ee
8dd
8cc#
=16
4dd
4f#
=17
4dd
8ccn
8b
=18
4cc
4e
=19
4b
4a
=20
2g
=21
4.a
8r
=22
24b
24cc
24dd
24cc
24b
24a
24b
24cc
24dd
24cc
24b
24a
=23
4b
16b
16cc
16b
16a
=24
4g
4g
=25
4.a
8r
=26
24b
24cc
24dd
24cc
24b
24a
24b
24cc
24dd
24cc
24b
24a
=27
4b
16b
16cc
16b
16a
=28
4g
8f#
8g
=29
2a
=30
6gg
6ff#
6ee
3dd
6cc
=31
4b
4dd
=32
16b
16cc
16b
16a
4g
=33
4d
4g
==|!
*-
